!! 00026] TT[TB
!! NN
!!!OTL: Erhai bian shang fengshou mang
!!!ARE: Yunnan, Eryuan
!! Ethnic Group: Bai
!! II, 27
!!!SCT: C0203
!!!YEM: Copyright 1995, estate of Helmut Schaffrath.
**kern
*ICvox
*Ivox
!! Mixed meters:  2/4; 3/4
*M2/4
*k[b-e-]
*B-:
{2cc
=1
4ddd
4ddd
=2
2ccc}
=3
{4ddd
8ccc
8bb-
=4
*M3/4
4gg
4ff
4een
=5
4ff
4bb-
4gg
=6
2ff
4dd
=7
*M2/4
[2cc
=8
2cc]}
=9
{[2ccc
=10
2ccc]
=11
*M3/4
4gg
4bb-
4gg
=12
2ff
4dd
=13
*M2/4
2cc
=14
8g
8r}
{4cc
=15
4cc
4bb-
=16
*M3/4
4gg
2ccc
=17
*M2/4
4ddd
4gg
=18
4ff
4dd
=19
2cc}
=20
{4ddd
8ccc
8bb-
=21
*M3/4
4gg
4ff
4gg
=22
4gg
8gg
8bb-
4gg
=23
*M2/4
2ff
=24
2dd
=25
[2cc
=26
2cc]}
=27
{2cc
=28
4ddd
4ddd
=29
*M3/4
4ddd
2ccc}
=30
*M2/4
{4ddd
8ccc
8bb-
=31
*M3/4
4gg
4ff
4een
=32
4ff
4bb-
4gg
=33
*M2/4
2ff
=34
2dd
=35
*M3/4
2cc
8g
8r}
=36
{4cc
4ff
4gg
=37
*M2/4
[2ccc
=38
2ccc]}
=39
{4ddd
4gg
=40
4bb-
4gg
=41
2ff
=42
2dd
=43
[2cc
=44
2cc]}
=45
{4cc
4ff
=46
*M3/4
4gg
2ccc
=47
*M2/4
4ddd
4gg
=48
*M3/4
4ff
2dd
=49
*M2/4
2cc}
=50
{4ddd
8ccc
8bb-
=51
*M3/4
4gg
4ff
4gg
=52
4ddd
2ff
=53
4dd
[2cc
=54
*M2/4
4cc]
8g
8r}
=55
{2cc
=56
4ddd
4ddd
=57
2ccc}
=58
{4ddd
8ccc
8bb-
=59
*M3/4
4gg
4ff
4een
=60
4ff
4bb-
4gg
=61
2ff
4dd
=62
*M2/4
[2cc
=63
2cc]}
=64
{[2ccc
=65
2ccc]
=66
*M3/4
4gg
4bb-
4gg
=67
2ff
4dd
=68
*M2/4
2cc
=69
8g
8r}
{4cc
=70
4cc
4bb-
=71
*M3/4
4gg
2ccc
=72
*M2/4
4ddd
4gg
=73
4ff
4dd
=74
2cc}
=75
{4ddd
8ccc
8bb-
=76
*M3/4
4gg
4ff
4gg
=77
4gg
8gg
8bb-
4gg
=78
*M2/4
2ff
=79
2dd
=80
[2cc
=81
2cc]}
=82
{2cc
=83
4ddd
4ddd
=84
*M3/4
4ddd
2ccc}
=85
*M2/4
{4ddd
8ccc
8bb-
=86
*M3/4
4gg
4ff
4een
=87
4ff
4bb-
4gg
=88
*M2/4
2ff
=89
2dd
=90
*M3/4
2cc
8g
8r}
=91
{4cc
4ff
4gg
=92
*M2/4
[2ccc
=93
2ccc]}
=94
{4ddd
4gg
=95
4bb-
4gg
=96
2ff
=97
2dd
=98
[2cc
=99
2cc]}
=100
{4cc
4ff
=101
*M3/4
4gg
2ccc
=102
*M2/4
4ddd
4gg
=103
*M3/4
4ff
2dd
=104
*M2/4
2cc}
=105
{4ddd
8ccc
8bb-
=106
*M3/4
4gg
4ff
4gg
=107
*M2/4
4ddd
[4ff
=108
4ff]
4dd
=109
4dd
[4cc
=110
4cc]
8g
8r}
==
!!!AGN: Shange, Deng chuan diao. Xinminge
!! Aehnelt den Bergliedern der Han. Wird begleitet von Suona,
!!    und xiao gu (kl. Sanduhrtrommel)
!!    Einige Glissandi, mehrere Verzierungen. Vor-, Zwischen- und Nachspiele
!!    weggelassen.
!!!ONB: ESAC (Essen Associative Code) Database: CHINA
!!!AMT: irregular
!!!AIN: vox
!!!EED: Helmut Schaffrath
!!!EEV: 1.0
*-
!!!ONB: Tied note syntax fixed by Craig Sapp, 2004/05/03/
